X:255
T:Reconfortez le petit cueur de moy (Chanson 21)
S:from bay21.MID
C:Manuscript de Bayeux (fin XVe)
R:Chanson
M:4/4
L:1/8
Q:1/4=100
K:G 
V:1
d4 e2 ee | d3c/2B/2 A2zA | c3c c2 B2 | A2 B2 A2zA | 
B4 G2 A2 | G8 | d4 e2 ee | d3c/2B/2 A2zA | 
c3c c2 B2 | A2 B2 A4 | B4 G2 A2 | G8 | 
d4 e2 ee | d3c/2B/2 A2zA | c3c c2 B2 | A2 B2 A2zA | 
d4 BA/2G/2 A2 | G2 A2 G4 | d4 e2 ee | d3c/2A/2 A2zA | 
c3c B2 A2 | G2 A2 BA/2G/2 A2 | G8 |]
V:2
d4 A2 A2 | d4 A2z2 | c4 c2 B2 | A2 B2 A2z2 | 
B4 G2 A2 | G4 G4 | d4 A2 A2 | d4 A2z2 | 
c4 c2 B2 | A2 B2 A4 | B4 G2 A2 | G4 G4 | 
d4 A2 A2 | d4 A2z2 | c4 c2 B2 | A2 B2 A2z2 | 
d4 B2 A2 | G2 A2 G4 | d4 A2 A2 | d4 A2z2 | 
c4 B2 A2 | G2 A2 B2 A2 | G8 |]





